public/images/icons/Bootstrap.svg

<svg width="198" height="199" viewBox="0 0 198 199" fill="none" xmlns="http://www.w3.org/2000/svg">
<path d="M196.698 164.395C196.714 173.169 193.26 181.59 187.098 187.805C180.935 194.02 172.569 197.521 163.839 197.536L34.4315 197.763C25.7013 197.778 17.3226 194.307 11.1386 188.114C4.95466 181.92 1.47197 173.511 1.4567 164.737L1.23076 34.6765C1.21556 25.9022 4.66902 17.4812 10.8314 11.266C16.9938 5.05077 25.3604 1.55049 34.0906 1.53514L163.498 1.30806C172.228 1.29278 180.607 4.76369 186.791 10.9572C192.975 17.1508 196.457 25.5596 196.473 34.3339L196.698 164.395ZM129.549 95.8398C139.284 90.6042 143.939 82.1823 143.515 70.5739C142.914 52.735 128.912 44.4196 112.224 44.242C93.39 44.0287 74.5328 43.9932 55.6521 44.1354C55.3115 44.1446 54.9879 44.2835 54.7502 44.5224C54.5125 44.7613 54.3794 45.0814 54.3793 45.4146V156.961C54.3793 157.348 54.532 157.718 54.8039 157.991C55.0757 158.265 55.4444 158.418 55.8289 158.418C74.0968 158.75 92.1407 158.714 109.961 158.312C129.666 157.861 141.935 150.778 146.767 137.061C151.717 123.06 146.874 101.49 129.831 97.8654C127.899 97.4389 127.804 96.7637 129.549 95.8398Z" fill="#800AF9"/>
<path d="M74.3206 61.6189C74.3159 61.4666 74.3416 61.3149 74.3964 61.1728C74.4511 61.0308 74.5337 60.9012 74.6392 60.7918C74.7448 60.6824 74.8711 60.5954 75.0107 60.5361C75.1504 60.4767 75.3004 60.4462 75.452 60.4463L108.476 60.3041C112.464 60.2847 116.298 61.8189 119.135 64.5703C121.972 67.3217 123.581 71.0655 123.608 74.9804V77.1125C123.622 79.0566 123.245 80.9844 122.499 82.7855C121.753 84.5866 120.652 86.2256 119.259 87.6087C117.867 88.9918 116.21 90.0917 114.384 90.8456C112.558 91.5994 110.598 91.9924 108.617 92.002L75.5935 92.1441C75.2994 92.1443 75.0169 92.0293 74.8057 91.8237C74.5945 91.6181 74.4712 91.3379 74.462 91.0425L74.3206 61.6189Z" fill="#800AF9"/>
<path d="M74.4267 107.673C74.4267 107.362 74.5496 107.064 74.7684 106.844C74.9872 106.624 75.284 106.501 75.5935 106.501L111.34 106.536C115.896 106.546 120.263 108.188 123.479 111.1C126.695 114.012 128.496 117.956 128.488 122.065V126.685C128.483 128.72 128.035 130.734 127.167 132.612C126.299 134.49 125.03 136.195 123.431 137.631C121.832 139.066 119.935 140.204 117.848 140.978C115.761 141.752 113.526 142.148 111.269 142.143L75.5227 142.107C75.3695 142.107 75.2178 142.077 75.0762 142.018C74.9347 141.959 74.806 141.873 74.6977 141.764C74.5894 141.655 74.5034 141.526 74.4448 141.383C74.3861 141.241 74.356 141.089 74.356 140.935L74.4267 107.673Z" fill="#800AF9"/>
</svg>

<svg width="198" height="199" fill="none" xmlns="http://www.w3.org/2000/svg"><path d="M196.698 164.395a33.166 33.166 0 0 1-9.6 23.41 32.835 32.835 0 0 1-23.259 9.731l-129.407.227a32.837 32.837 0 0 1-23.293-9.649 33.17 33.17 0 0 1-9.682-23.377L1.23 34.677a33.17 33.17 0 0 1 9.6-23.411 32.834 32.834 0 0 1 23.26-9.73l129.407-.228a32.834 32.834 0 0 1 23.293 9.65 33.171 33.171 0 0 1 9.682 23.376l.225 130.061ZM129.549 95.84c9.735-5.236 14.39-13.658 13.966-25.266-.601-17.839-14.603-26.154-31.291-26.332a3000.164 3000.164 0 0 0-56.572-.107c-.34.01-.664.148-.902.387-.237.24-.37.56-.37.893V156.96c0 .387.152.757.424 1.03.272.274.64.427 1.025.427 18.268.332 36.312.296 54.132-.106 19.705-.451 31.974-7.534 36.806-21.251 4.95-14.001.107-35.571-16.936-39.196-1.932-.426-2.027-1.101-.282-2.025Z" fill="#800AF9"/><path d="M74.32 61.619a1.142 1.142 0 0 1 .69-1.083c.14-.06.29-.09.442-.09l33.024-.142a15.208 15.208 0 0 1 10.659 4.266 14.642 14.642 0 0 1 4.473 10.41v2.132a14.547 14.547 0 0 1-1.109 5.674 14.756 14.756 0 0 1-3.24 4.823 15.079 15.079 0 0 1-4.875 3.237 15.313 15.313 0 0 1-5.767 1.156l-33.023.142c-.295 0-.577-.115-.788-.32a1.14 1.14 0 0 1-.344-.781l-.141-29.424ZM74.427 107.673c0-.311.123-.609.341-.829.22-.22.516-.343.826-.343l35.746.035c4.556.01 8.923 1.652 12.139 4.564 3.216 2.912 5.017 6.856 5.009 10.965v4.62a14.188 14.188 0 0 1-1.321 5.927 15.505 15.505 0 0 1-3.736 5.019 17.422 17.422 0 0 1-5.583 3.347 18.826 18.826 0 0 1-6.579 1.165l-35.746-.036a1.16 1.16 0 0 1-1.078-.724 1.172 1.172 0 0 1-.089-.448l.07-33.262Z" fill="#800AF9"/></svg>
